Papirus-Light/24x24/animations/nm-vpn-connecting13.svg

<?xml version="1.0" encoding="UTF-8" standalone="no"?>
<svg xmlns="http://www.w3.org/2000/svg" version="1.1" width="24" height="24">
 <defs>
  <linearGradient x1="7" y1="12" gradientTransform="matrix(-0.78369,-0.62115,-0.62115,0.78369,28.858,10.05)" x2="19" gradientUnits="userSpaceOnUse" y2="5" id="linearGradient3605">
   <stop offset="0" stop-opacity=".5" stop-color="#5c616c"/>
   <stop offset="1" stop-opacity="0" stop-color="#5c616c"/>
  </linearGradient>
  <linearGradient x1="7" y1="12" gradientTransform="matrix(0.78369,0.62115,0.62115,-0.78369,-4.8578,13.951)" x2="17" gradientUnits="userSpaceOnUse" y2="12" id="linearGradient3611">
   <stop offset="0" stop-color="#5c616c"/>
   <stop offset="1" stop-color="#5c616c" stop-opacity=".5"/>
  </linearGradient>
 </defs>
 <path d="M 7.2128906 7.2734375 C 6.9649906 7.2843375 6.7154719 7.3976438 6.5136719 7.6523438 C 4.1122719 10.682044 4.6225437 15.085328 7.6523438 17.486328 C 9.2233271 18.732078 11.16108 19.185762 13 18.919922 L 13 16.894531 C 11.604577 17.178535 10.09771 16.873721 8.8945312 15.919922 C 6.7301312 14.203922 6.3668312 11.059031 8.0820312 8.8945312 C 8.6877313 8.1304313 7.9564906 7.2408375 7.2128906 7.2734375 z" style="fill:url(#linearGradient3611)"/>
 <path d="M 11.865234 5.0019531 C 9.8487344 5.0417531 7.8644719 5.9481438 6.5136719 7.6523438 L 8.0820312 8.8945312 C 9.7972312 6.7304313 12.941469 6.3668313 15.105469 8.0820312 C 16.351012 9.0688574 16.985405 10.527737 16.984375 12.001953 C 16.989734 12.001924 16.994634 12 17 12 C 17.746541 12 18.417366 12.291533 18.939453 12.751953 C 19.188032 10.444067 18.301293 8.0645667 16.347656 6.515625 C 15.021656 5.465025 13.434234 4.9709531 11.865234 5.0019531 z" style="fill:url(#linearGradient3605)"/>
 <path d="m17 13c-1.108 0-2 .91085-2 2.0312v.96875h-1v4h6v-4h-1v-.96875c0-1.12-.892-2.031-2-2.031zm0 1c.554 0 1 .4424 1 1v1h-2v-1c0-.5576.446-1 1-1z" fill="#5c616c"/>
</svg>

<?xml version="1.0" encoding="UTF-8" standalone="no"?>
<svg width="24" xmlns="http://www.w3.org/2000/svg" version="1.1" height="24">
 <defs>
  <linearGradient id="linearGradient3605" x1="7" gradientUnits="userSpaceOnUse" x2="19" gradientTransform="matrix(-.78369 -.62115 -.62115 .78369 28.858 10.05)" y1="12" y2="5">
   <stop stop-opacity=".5" stop-color="#5c616c" offset="0"/>
   <stop stop-opacity="0" stop-color="#5c616c" offset="1"/>
  </linearGradient>
  <linearGradient id="linearGradient3611" x1="7" gradientUnits="userSpaceOnUse" x2="17" gradientTransform="matrix(.78369 .62115 .62115 -.78369 -4.8578 13.951)" y1="12" y2="12">
   <stop stop-color="#5c616c" offset="0"/>
   <stop stop-color="#5c616c" stop-opacity=".5" offset="1"/>
  </linearGradient>
 </defs>
 <path style="fill:url(#linearGradient3611)" d="m7.2129 7.2734c-0.2479 0.0109-0.4974 0.1242-0.6992 0.3789-2.4014 3.0297-1.8912 7.4327 1.1386 9.8337 1.571 1.246 3.5087 1.7 5.3477 1.434v-2.025c-1.395 0.284-2.902-0.021-4.1055-0.975-2.1644-1.716-2.5277-4.861-0.8125-7.0255 0.6057-0.7641-0.1255-1.6537-0.8691-1.6211z"/>
 <path style="fill:url(#linearGradient3605)" d="m11.865 5.002c-2.0163 0.0398-4.0005 0.9461-5.3513 2.6503l1.5683 1.2422c1.7152-2.1641 4.859-2.5277 7.023-0.8125 1.246 0.9869 1.88 2.446 1.879 3.92 0.006 0 0.011-0.002 0.016-0.002 0.747 0 1.417 0.292 1.939 0.752 0.249-2.308-0.638-4.6874-2.591-6.2364-1.326-1.0506-2.914-1.5446-4.483-1.5136z"/>
 <path d="m17 13c-1.108 0-2 0.91085-2 2.0312v0.96875h-1v4h6v-4h-1v-0.96875c0-1.12-0.892-2.031-2-2.031zm0 1c0.554 0 1 0.4424 1 1v1h-2v-1c0-0.5576 0.446-1 1-1z" fill="#5c616c"/>
</svg>
